X:412
T: AUF MATROSEN DIE ANKER GELICHTET
N: F0755
O: Europa, Mitteleuropa, Deutschland
R: Staende -, Matrosen - Lied
M: 4/4
L: 1/8
K: C
G,3G, | C2CCC2B,C | D2G,2
G,2G,G, | G,2G,2D2CD | E2C2z4
C4B,2B,2 | A,4z4
A,4B,2B,2 | C4
C2B,C | D2D2EDCD | E4
DFED | C2CCCB,A,B, | C4z4 | z4

